X:1
T:Port Appin Pier
M:2/4
L:1/16
C:Neil Grant
Z:Gary Blair <GaryBlair@compuserve.com> (scots-l 2000/01/20)
N:Serious format problems fixed by John Chambers <jc:trillian.mit.edu>
R:Reel
K:A
A2 \
|| c2e2 a2ga | fecB c2ec | A2f2 e2ce | fecA B2cd \
|  e2A2 a2ga | fecB c2ae | fecB c2eA |1 B2A2A2 A2 :|2 B2A2A2 cd ||
|: ecBA a2fe | f2e2 c2ec | ABcf e2cA | f2B2 B2AB \
|  c2A2 a2ec | gfec B2AB | c2e2 aece |1 B2A2A2 cd :|2 B2A2A2 |]
